!!!!SEGMENT: pl-sa--l-1636--106_anonim--gorzkie-zale.krn
!!!id: 17xx:813
!!!COM: Anonim
!!!COM-rism: pe30004985
!!!CDT:
!!!CNT:
!!!OTL: Gorzkie żale
!!!PDT:
!!!SMS-siglum: PL-SA
!!!SMS-shelfmark: L 1636
!!!SMS-variant:
!!!SMS-altvar:
!!!NIFC-rismID: 1001087543
!!!system-decoration: [(s1,s2)]
**kern	**kern
*part2	*part1
*staff2	*staff1
*	*I"Organo
*clefF4	*clefC1
*k[]	*k[]
*M2/2	*M2/2
*met(c|)	*met(c|)
=1	=1
*	*^
*2\right	*2\right	*
!LO:TX:a:t=P:wszystkie nuty mają caudy z prawej strony:problem	!LO:TX:a:t=P:wszystkie nuty mają caudy z prawej strony:problem	!
!LO:TX:a:t=P:w źródle niejednoznaczny symbol po metrum na 4 polu:problem	!LO:TX:a:t=P:w źródle niejednoznaczny symbol po metrum na 4 polu:problem	!
!	!LO:TX:b:Bi:t=Gorzkie żale	!
8.AA/L	4.cc/	4.a\
!LO:N:vis=8	!	!
16BB/K	.	.
8C/	.	.
8D/J	8cc/	8a\
4E\	4b/	4g#X\
4EE/	4b/	4g#\
=2	=2	=2
4BB/	4dd/	4b\
4C/	16ee/LL	16cc\LL
.	16dd/JJ	16b\JJ
.	16cc/LL	16a\LL
.	16b/JJ	16g\JJ
8.D\L	4a/	4f#X\
16E\K	.	.
8F#Xi\	4a/	4f#\
8D\J	.	.
=3	=3	=3
2C/	4ee/	4cc\
.	8ee/L	8cc\L
.	8dd/J	8b\J
8.F\L	4cc/	4a\
16G\K	.	.
8F\	4cc/	4a\
8E\J	.	.
=4	=4	=4
2D/	4.dd/	4.b\
.	8cc/	8a\
8E\L	4b/	4g#X\
8F\	.	.
8E\	4b/	4g#\
8D\J	.	.
=5	=5	=5
2C/	4cc/	4a\
.	8cc/L	8a\L
.	8b/J	8g\J
8.D/L	4a/	4f#X\
!LO:N:vis=8	!	!
16E/K	.	.
8D/	4a/	4f#\
8C/J	.	.
=6	=6	=6
!	!	!LO:SIC:s=4f#:v
8D/L	4a/	4f\
8C/	.	.
8BB/	4b/	4g\
8GG/J	.	.
!!LO:LB:g=original
!	!LO:TX:a:t=P:note position:problem	!
8C/L	2a/	8g\L
8AA/	.	16f#Xi\L
.	.	16e\JJ
8D/	.	4f#Xi\
8DD/J	.	.
*	*v	*v
=7	=7
1G 1D 1BB 1GG	1b 1g 1d
!LO:TX:a:t=P:w źródle ozdobna podwójna kreska taktowa &colon;||&colon;:problem	!LO:TX:a:t=P:w źródle ozdobna podwójna kreska taktowa &colon;||&colon;:problem
=8||	=8||
2r	2r
!	!LO:TX:a:t=P:w źródle niejednoznaczny zapis dźwięku 2b:problem
8GG/L	2b 2g/
8AA/	.
8BB/	.
8C/J	.
=9	=9
*	*^
2D/	2a 2f#X/	2reyy
4D/	4a/	4f#\
16AA/LL	4cc/	4a\
16BB/	.	.
16C/	.	.
16D/JJ	.	.
=10	=10	=10
2E\	2b/	2g#X\
2EE/	2b 2g#/	2reyy
=11	=11	=11
2r	2r	2ryy
4E\	4b/	4g#X\
4EE/	4b/	4g#\
*	*v	*v
=12	=12
4A\	2cc 2a/
4AA/	.
2r	2r
=13	=13
*	*^
4D/	4a/	4f\
4DD/	4a/	4f\
2GG/	2b/	2g\
!!LO:LB:g=original
=14	=14	=14
4E\	4g/	4e\
!	!	!LO:N:vis=4
8D/L	8a/L	8f#X\
!	!	!LO:N:vis=4
8BB/J	8b/J	8g#X\
16AA/LL	4cc/	4a\
16BB/	.	.
16C/	.	.
16D/JJ	.	.
!LO:TX:a:t=P:mixed beam:problem	!	!
!	!LO:TX:a:t=P:note position:problem	!
8E\L	4b/	8a\L
8EE/J	.	8g#X\J
*	*v	*v
=15	=15
!LO:TX:a:t=P:w źródle łuk nad i pod akordem; przyjęto fermaty:problem	!
1A 1E 1AA;;	1cc#X 1a 1e
!LO:TX:a:t=P:w źródle ozdobna kreska końcowa &colon;||&colon;:problem	!LO:TX:a:t=P:w źródle ozdobna kreska końcowa &colon;||&colon;:problem
==	==
*-	*-
!!title: @{OTL};
!!!RDF**kern: > = above
!!!RDF**kern: < = below
!!!RDF**kern: i = editorial accidental
!!!EED: Wojciech Jakubiak-Danek
!!!EST: 2020-12-08
!!!URL-scan: http://repozytorium.nifc.pl/skany/pl-sa-nut--l1636
!!!ONB-nifc: 53v, skan 0045, s. 1-3
!!!ENC: Andrzej Kubiczek
!!!END: 2020-06-13
